teeny/solid/gatsbyjs.svg

<svg width="15" height="15" viewBox="0 0 15 15" fill="none" xmlns="http://www.w3.org/2000/svg">
<path fill-rule="evenodd" clip-rule="evenodd" d="M0 7.5C0 3.35786 3.35786 0 7.5 0C11.6421 0 15 3.35786 15 7.5C15 11.6421 11.6421 15 7.5 15C3.35786 15 0 11.6421 0 7.5ZM3.30472 5.86865C3.95815 4.18936 5.5908 3 7.50006 3C8.75899 3 9.89643 3.51632 10.7137 4.35002L11.4278 3.64998C10.4302 2.63232 9.03852 2 7.50006 2C5.0366 2 2.95264 3.61922 2.25194 5.85017L2.16113 6.13928L8.86078 12.8389L9.14988 12.7481C11.2129 12.1002 12.7525 10.2699 12.9729 8.0494L13.0275 7.5H9.00006V8.5H11.8886C11.5562 9.96491 10.5084 11.1595 9.1314 11.6953L3.30472 5.86865ZM6.14648 12.8536L2.14648 8.85359L2.85359 8.14648L6.85359 12.1465L6.14648 12.8536Z" fill="black"/>
</svg>

<svg viewBox="0 0 15 15" xmlns="http://www.w3.org/2000/svg"><path fill-rule="evenodd" d="M0 7.5C0 3.35 3.35 0 7.5 0 11.64 0 15 3.35 15 7.5c0 4.14-3.36 7.5-7.5 7.5C3.35 15 0 11.64 0 7.5Zm3.3-1.64c.65-1.68 2.28-2.87 4.19-2.87 1.25 0 2.39.51 3.21 1.35l.71-.71c-1-1.02-2.39-1.65-3.93-1.65 -2.47 0-4.55 1.61-5.25 3.85l-.1.28 6.69 6.69 .28-.1c2.06-.65 3.6-2.48 3.82-4.7l.05-.55H8.94v1h2.88c-.34 1.46-1.39 2.65-2.76 3.19L3.23 5.81Zm2.84 6.98l-4-4.01 .7-.71 4 4 -.71.7Z"/></svg>
